X:6
T:Willie Murray
C:Traditional
R:Reel
M:C|
L:1/8
K:D
[| {Gdc}d2 {g}Bc {g}dB{G}Bc | {Gdc}d2 {g}Bc {g}dB{g}fB | {Gdc}d2 {g}Bc {g}dB{G}Bd | {g}c{d}A{e}AB {g}cd{g}ec |
{Gdc}d2 {g}Bc {g}dB{G}Bc | {g}dB{G}Bc {g}dB{g}fB | {Gdc}d3 c {g}dB{G}Bd | {g}c{d}A{e}AB {g}cd{g}ec ||
{g}Aaga fd {ag}a2 | fd{G}de {g}fgaf | {g}Aaga fd {ag}a2  | c{d}A{e}AB {g}cd{g}ec | 
{g}A(aa)g {a}fd {ag}a2 | fd{G}de {g}fgaf | {gf}g2 af {a}ge{g}fd | {g}c{d}A{e}AB {g}cd{g}ec |]

